shader_type canvas_item;

void vertex() {
	// Called for every vertex the material is visible on.
}

void fragment() {
	vec4 input_color = texture(TEXTURE, UV);
	COLOR = vec4(input_color.r, 1.0, 1.0, input_color.a);
}

void light() {
	// Called for every pixel for every light affecting the CanvasItem.
}
